src/assets/call.svg

<svg width="16" height="16" viewBox="0 0 16 16" fill="none" xmlns="http://www.w3.org/2000/svg">
<path d="M13.25 14C11.8944 14 10.5472 13.6667 9.20833 13C7.86944 12.3333 6.66667 11.4667 5.6 10.4C4.53333 9.33333 3.66667 8.13056 3 6.79167C2.33333 5.45278 2 4.10556 2 2.75C2 2.53571 2.07143 2.35714 2.21428 2.21428C2.35714 2.07143 2.53571 2 2.75 2H5.08333C5.23457 2 5.3696 2.05278 5.48843 2.15833C5.60726 2.26389 5.68333 2.40556 5.71667 2.58333L6.16667 4.68333C6.18889 4.83889 6.18611 4.98056 6.15833 5.10833C6.13056 5.23611 6.07222 5.34444 5.98333 5.43333L4.31667 7.11667C4.93889 8.15 5.63611 9.05 6.40833 9.81667C7.18056 10.5833 8.05556 11.2333 9.03333 11.7667L10.6167 10.1333C10.7278 10.0111 10.8556 9.925 11 9.875C11.1444 9.825 11.2889 9.81667 11.4333 9.85L13.4167 10.2833C13.5868 10.3208 13.7266 10.4052 13.8359 10.5365C13.9453 10.6677 14 10.8222 14 11V13.25C14 13.4643 13.9286 13.6429 13.7857 13.7857C13.6429 13.9286 13.4643 14 13.25 14ZM3.81667 6.2L5.16667 4.83333L4.78333 3H3C3 3.43333 3.06667 3.90833 3.2 4.425C3.33333 4.94167 3.53889 5.53333 3.81667 6.2ZM9.96667 12.25C10.4222 12.4611 10.9167 12.6333 11.45 12.7667C11.9833 12.9 12.5 12.9778 13 13V11.2167L11.2833 10.8667L9.96667 12.25Z" fill="black"/>
</svg>

<svg width="16" height="16" fill="current" viewBox="0 0 16 16" fill="none" xmlns="http://www.w3.org/2000/svg"><path d="M13.25 14c-1.356 0-2.703-.333-4.042-1A13.723 13.723 0 0 1 5.6 10.4 13.723 13.723 0 0 1 3 6.792c-.667-1.34-1-2.686-1-4.042 0-.214.071-.393.214-.536A.727.727 0 0 1 2.75 2h2.333c.152 0 .287.053.405.158a.728.728 0 0 1 .229.425l.45 2.1a1.2 1.2 0 0 1-.009.425.642.642 0 0 1-.175.325L4.317 7.117a13.838 13.838 0 0 0 2.091 2.7 11.564 11.564 0 0 0 2.625 1.95l1.584-1.634A.922.922 0 0 1 11 9.875a.77.77 0 0 1 .433-.025l1.984.433c.17.038.31.122.419.253A.7.7 0 0 1 14 11v2.25a.727.727 0 0 1-.214.536.727.727 0 0 1-.536.214zM3.817 6.2l1.35-1.367L4.783 3H3c0 .433.067.908.2 1.425.133.517.339 1.108.617 1.775zm6.15 6.05c.455.211.95.383 1.483.517.533.133 1.05.21 1.55.233v-1.783l-1.717-.35-1.316 1.383z"/></svg>
